!!!Genre:	Skotshne
!!!Mode:	Major
!!!Listening/dance:	dance
!!!:	*g:dor
!!!One_Mode:	no
**kern
*I"P1
*clefG2
*k[f#]
*G:
*M2/4
*>A
=1
8dL
16gL
16aJJ
8bL
8bJ
=2
16bLL
16ddJ
8ccJ
8.ccL
16bJk
=3
16bLL
16ddJ
8ccJ
8ccL
16bL
16aJJ
=4
(16aLL
16ddJJ)
4.b
=5
8dL
16gL
16aJJ
8bL
8bJ
=6
16bLL
16ddJ
8ccJ
8.ccL
16bJk
=7
16bLL
16ddJ
8ccJ
8bL
16aL
16gJJ
=8
16aLL
16bJJ
4.g
=9:|!
16aLL
16bJJ
4g
8a
*>bM
*G:
=18||
*>C
*k[f#]
*G:
8ccL
16bL
16aJJ
8bL
16aL
16gJJ
=19
8aL
16gL
16f#JJ
16gLL
16a
16b
16ccJJ
=20
8ddL
16ccL
16bJJ
16aLL
16b
16cc
16aJJ
=21
4.b
8dd
=22
8ggL
16ff#L
16eeJJ
4ff#
=23
8ccL
16bL
16aJJ
4b
=24
16aLL
16b
16cc
16ddJJ
16bLL
16g
16a
16f#JJ
=25
2g
==
*-
